logo/todomvc.svg

<?xml version="1.0" encoding="UTF-8" standalone="no"?>
<svg width="256px" height="230px" viewBox="0 0 256 230" version="1.1" xmlns="http://www.w3.org/2000/svg" xmlns:xlink="http://www.w3.org/1999/xlink" preserveAspectRatio="xMidYMid">
	<g>
		<path d="M34.404,15.29 L57.951,15.29 L57.951,0 L34.404,0 C27.882,0 21.533,1.835 16.041,5.306 L24.211,18.231 C27.254,16.307 30.779,15.29 34.404,15.29 L34.404,15.29 Z M15.29,34.404 C15.29,31.61 15.877,28.922 17.034,26.413 L3.148,20.012 C1.059,24.542 0,29.384 0,34.404 L0,61.468 L15.29,61.468 L15.29,34.404 L15.29,34.404 Z M0,76.911 L15.29,76.911 L15.29,115.443 L0,115.443 L0,76.911 Z M205.901,18.717 C210.511,15.798 215.105,13.04 219.654,10.46 C217.054,7.782 214.021,5.522 210.713,3.815 C205.876,1.319 200.427,0 194.954,0 L181.422,0 L181.422,15.29 L194.954,15.29 C198.96,15.29 202.742,16.501 205.901,18.717 L205.901,18.717 Z M0,130.887 L15.29,130.887 L15.29,169.496 L0,169.496 L0,130.887 Z M73.395,0 L111.927,0 L111.927,15.291 L73.395,15.291 L73.395,0 Z M127.37,0 L165.979,0 L165.979,15.291 L127.37,15.291 L127.37,0 Z M144.419,214.067 L182.951,214.067 L182.951,229.358 L144.419,229.358 L144.419,214.067 Z M214.068,86.85 L229.359,86.85 L229.359,125.459 L214.068,125.459 L214.068,86.85 Z M214.068,140.902 L229.359,140.902 L229.359,179.434 L214.068,179.434 L214.068,140.902 Z M15.29,194.954 L15.29,184.939 L0,184.939 L0,194.954 C0,207.477 6.814,219.021 17.783,225.083 L25.178,211.699 C19.079,208.329 15.29,201.913 15.29,194.954 L15.29,194.954 Z M214.068,61.267 L214.068,71.407 L229.358,71.407 L229.358,48.698 C224.332,52.44 219.23,56.634 214.068,61.267 L214.068,61.267 Z M214.068,194.954 C214.068,204.539 206.915,212.688 197.429,213.91 L199.381,229.075 C207.612,228.015 215.187,223.997 220.712,217.762 C226.287,211.469 229.358,203.369 229.358,194.954 L229.358,194.878 L214.068,194.878 L214.068,194.954 L214.068,194.954 Z M36.315,214.067 L74.924,214.067 L74.924,229.358 L36.315,229.358 L36.315,214.067 Z M90.367,214.067 L128.976,214.067 L128.976,229.358 L90.367,229.358 L90.367,214.067 Z" fill="#383838"></path>
		<path d="M35.015,121.738 L106.735,193.458 C106.735,193.458 178.455,55.479 256,24.534 L253.088,2.69 C210.857,19.437 146.782,63.489 99.454,130.839 L49.578,101.351 L35.015,121.738" fill="#AF2F2F"></path>
	</g>
</svg>

<svg viewBox="0 0 256 230" xmlns="http://www.w3.org/2000/svg"><path fill="#383838" d="M34.4 15.29h23.54V0H34.39c-6.53 0-12.88 1.835-18.37 5.306l8.17 12.925c3.04-1.93 6.56-2.95 10.19-2.95v0ZM15.28 34.4c0-2.8.58-5.49 1.74-8L3.13 19.999c-2.09 4.53-3.15 9.372-3.15 14.39v27.06h15.29v-27.07 0ZM-.01 76.9h15.29v38.532H-.01V76.9ZM205.89 18.7c4.61-2.92 9.2-5.677 13.75-8.26 -2.6-2.68-5.64-4.94-8.95-6.65 -4.84-2.5-10.29-3.82-15.76-3.82h-13.54v15.29h13.53c4.006 0 7.78 1.21 10.94 3.42v0ZM-.01 130.87h15.29v38.6H-.01v-38.61ZM73.385-.02h38.53v15.29h-38.54V-.03Zm53.97 0h38.6v15.29h-38.61V-.03Zm17.04 214.067h38.53v15.29h-38.54v-15.3Zm69.64-127.22h15.29v38.6h-15.3V86.81Zm0 54.05h15.29v38.53h-15.3v-38.54ZM15.25 194.92v-10.02H-.04v10.01c0 12.52 6.81 24.06 17.78 30.12l7.39-13.39c-6.099-3.37-9.89-9.79-9.89-16.75v0ZM214.02 61.24v10.14h15.29V48.67c-5.03 3.74-10.13 7.93-15.29 12.56v0Zm0 133.687c0 9.58-7.16 17.73-16.64 18.95l1.95 15.16c8.23-1.06 15.8-5.08 21.33-11.32 5.57-6.3 8.64-14.393 8.64-22.81v-.08h-15.29v.07 0ZM36.26 214.04h38.6v15.29H36.25v-15.3Zm54.05 0h38.6v15.29H90.3v-15.3Z"/><path fill="#AF2F2F" d="M35.01 121.738l71.72 71.72s71.72-137.98 149.26-168.93l-2.92-21.85C210.83 19.42 146.76 63.47 99.43 130.827l-49.88-29.488 -14.57 20.387"/></svg>
